public/images/da18.svg

<svg width="100" height="100" viewBox="0 0 100 100" fill="none" xmlns="http://www.w3.org/2000/svg">
<path d="M64.795 1H36.205C34.39 1 32.71 1.9743 31.795 3.54818L17.485 28.2955C16.57 29.8694 16.57 31.818 17.485 33.3919L31.78 58.1392C32.695 59.7131 34.375 60.6874 36.19 60.6874H64.795C66.61 60.6874 68.29 59.7131 69.205 58.1392L83.5 33.3919C84.415 31.818 84.415 29.8694 83.5 28.2955L69.22 3.54818C68.305 1.9743 66.625 1 64.795 1Z" fill="#4683ED"/>
<path d="M61.975 23.5588L59.065 29.1648L54.505 24.6081L50.5 25.5074L47.38 26.8415L44.095 23.5588L37.36 25.9122L37.075 32.3276L39.955 35.2055L35.215 38.2633L57.655 60.6873H64.795C66.61 60.6873 68.29 59.713 69.205 58.1391L79.225 40.7965L61.975 23.5588Z" fill="#417BDC"/>
<path d="M44.11 23.5588H37.81C36.385 23.5588 35.215 24.713 35.215 26.152V29.8244C35.215 31.2483 36.37 32.4175 37.81 32.4175H41.14V35.2055H36.055L35.215 38.2633H41.515C42.94 38.2633 44.11 37.1092 44.11 35.6702V32.0728C44.11 30.6488 42.955 29.4796 41.515 29.4796H38.32V26.5567H43.3L44.11 23.5588Z" fill="#FEFFFD"/>
<path d="M55.24 35.2955V26.6017C55.24 24.9229 53.875 23.5588 52.195 23.5588H49.33C47.65 23.5588 46.285 24.9229 46.285 26.6017V35.2055C46.285 36.8843 47.65 38.2483 49.33 38.2483H54.025H55.24H56.62V35.2955H55.24ZM52.285 35.2955H49.255V26.5117H52.285V35.2955Z" fill="#FEFFFD"/>
<path d="M67.87 35.2955H61.975V23.5588H59.05V35.2955V38.2184V38.2633H61.975V38.2184H67.87V35.2955Z" fill="#FEFFFD"/>
<path d="M30.19 71.7345H34.27V77.2955C33.61 77.5053 32.965 77.6702 32.35 77.7602C31.735 77.8501 31.075 77.8951 30.355 77.8951C28.675 77.8951 27.385 77.4004 26.47 76.4111C25.555 75.4218 25.105 74.0128 25.105 72.2141C25.105 70.4304 25.615 69.0364 26.65 68.0321C27.67 67.0278 29.095 66.5182 30.88 66.5182C32.035 66.5182 33.13 66.743 34.165 67.1777L33.535 68.6916C32.635 68.2719 31.735 68.0771 30.835 68.0771C29.65 68.0771 28.72 68.4518 28.03 69.1863C27.34 69.9357 26.995 70.94 26.995 72.2291C26.995 73.5781 27.31 74.6124 27.925 75.3169C28.54 76.0214 29.44 76.3662 30.595 76.3662C31.18 76.3662 31.81 76.2912 32.47 76.1413V73.2933H30.175V71.7345H30.19Z" fill="#7A7A7A"/>
<path d="M44.17 73.5482C44.17 74.9123 43.825 75.9915 43.12 76.7559C42.415 77.5204 41.44 77.9101 40.18 77.9101C39.4 77.9101 38.71 77.7303 38.11 77.3855C37.51 77.0258 37.045 76.5311 36.73 75.8566C36.4 75.1971 36.25 74.4326 36.25 73.5482C36.25 72.1842 36.595 71.135 37.3 70.3705C37.99 69.6061 38.98 69.2313 40.255 69.2313C41.47 69.2313 42.43 69.621 43.135 70.4005C43.825 71.1649 44.17 72.2142 44.17 73.5482ZM38.08 73.5482C38.08 75.4819 38.8 76.4562 40.225 76.4562C41.635 76.4562 42.34 75.4968 42.34 73.5482C42.34 71.6296 41.635 70.6853 40.21 70.6853C39.46 70.6853 38.92 70.9401 38.59 71.4347C38.245 71.9144 38.08 72.6189 38.08 73.5482Z" fill="#7A7A7A"/>
<path d="M53.65 73.5482C53.65 74.9123 53.305 75.9915 52.6 76.7559C51.895 77.5204 50.92 77.9101 49.66 77.9101C48.88 77.9101 48.19 77.7303 47.59 77.3855C46.99 77.0258 46.525 76.5311 46.21 75.8566C45.88 75.1971 45.73 74.4326 45.73 73.5482C45.73 72.1842 46.075 71.135 46.78 70.3705C47.47 69.6061 48.46 69.2313 49.735 69.2313C50.95 69.2313 51.91 69.621 52.615 70.4005C53.305 71.1649 53.65 72.2142 53.65 73.5482ZM47.56 73.5482C47.56 75.4819 48.28 76.4562 49.705 76.4562C51.115 76.4562 51.82 75.4968 51.82 73.5482C51.82 71.6296 51.115 70.6853 49.69 70.6853C48.94 70.6853 48.4 70.9401 48.07 71.4347C47.725 71.9144 47.56 72.6189 47.56 73.5482Z" fill="#7A7A7A"/>
<path d="M62.785 69.3661V70.3404L61.36 70.6102C61.495 70.7901 61.6 71 61.69 71.2548C61.78 71.5096 61.825 71.7794 61.825 72.0792C61.825 72.9486 61.525 73.6231 60.925 74.1177C60.325 74.6124 59.515 74.8672 58.465 74.8672C58.195 74.8672 57.955 74.8522 57.73 74.8072C57.34 75.0471 57.16 75.3169 57.16 75.6466C57.16 75.8415 57.25 75.9764 57.43 76.0813C57.61 76.1713 57.94 76.2312 58.42 76.2312H59.89C60.82 76.2312 61.51 76.4261 61.99 76.8158C62.47 77.2055 62.71 77.7751 62.71 78.5246C62.71 79.4689 62.32 80.2034 61.54 80.728C60.76 81.2377 59.62 81.5075 58.15 81.5075C57.01 81.5075 56.14 81.3126 55.54 80.9079C54.94 80.5032 54.64 79.9336 54.64 79.1841C54.64 78.6745 54.805 78.2398 55.135 77.8801C55.465 77.5353 55.915 77.2805 56.5 77.1456C56.26 77.0406 56.065 76.8758 55.915 76.6509C55.765 76.4261 55.69 76.1863 55.69 75.9464C55.69 75.6317 55.78 75.3619 55.96 75.152C56.14 74.9422 56.395 74.7173 56.755 74.5075C56.32 74.3276 55.975 74.0128 55.705 73.5931C55.435 73.1734 55.3 72.6788 55.3 72.1092C55.3 71.1948 55.585 70.4903 56.155 69.9957C56.725 69.501 57.55 69.2462 58.6 69.2462C58.84 69.2462 59.08 69.2612 59.35 69.2912C59.605 69.3212 59.8 69.3511 59.935 69.3961H62.785V69.3661ZM56.2 79.0492C56.2 79.4389 56.38 79.7237 56.725 79.9336C57.07 80.1434 57.565 80.2484 58.18 80.2484C59.155 80.2484 59.875 80.1135 60.355 79.8287C60.835 79.5439 61.06 79.1841 61.06 78.7195C61.06 78.3597 60.925 78.0899 60.67 77.94C60.415 77.7901 59.92 77.7152 59.215 77.7152H57.865C57.355 77.7152 56.95 77.8351 56.65 78.0749C56.35 78.3147 56.2 78.6445 56.2 79.0492ZM56.965 72.0792C56.965 72.6038 57.1 73.0085 57.37 73.2933C57.64 73.5781 58.03 73.713 58.54 73.713C59.575 73.713 60.085 73.1584 60.085 72.0642C60.085 71.5246 59.95 71.1049 59.695 70.8051C59.44 70.5053 59.05 70.3554 58.525 70.3554C58.015 70.3554 57.625 70.5053 57.355 70.7901C57.085 71.0749 56.965 71.5246 56.965 72.0792Z" fill="#7A7A7A"/>
<path d="M66.115 77.7452H64.33V65.9636H66.115V77.7452Z" fill="#7A7A7A"/>
<path d="M72.325 77.8951C71.02 77.8951 70 77.5204 69.265 76.7559C68.53 75.9915 68.155 74.9572 68.155 73.6232C68.155 72.2592 68.5 71.1799 69.175 70.4005C69.85 69.621 70.795 69.2313 71.98 69.2313C73.09 69.2313 73.96 69.5611 74.605 70.2356C75.25 70.9101 75.565 71.8245 75.565 73.0086V73.9679H70C70.03 74.7774 70.24 75.4069 70.66 75.8416C71.08 76.2763 71.665 76.5011 72.415 76.5011C72.91 76.5011 73.375 76.4562 73.795 76.3662C74.215 76.2763 74.68 76.1114 75.175 75.9016V77.3555C74.74 77.5654 74.305 77.7153 73.855 77.7902C73.405 77.8502 72.895 77.8951 72.325 77.8951ZM71.995 70.5654C71.425 70.5654 70.975 70.7452 70.63 71.105C70.285 71.4647 70.09 71.9894 70.015 72.6789H73.825C73.81 71.9894 73.645 71.4647 73.33 71.105C73.015 70.7452 72.565 70.5654 71.995 70.5654Z" fill="#7A7A7A"/>
<path d="M18.265 86.6789C17.23 86.6789 16.405 87.0536 15.805 87.7881C15.205 88.5226 14.905 89.5418 14.905 90.8459C14.905 92.2099 15.19 93.2292 15.76 93.9337C16.33 94.6232 17.17 94.9829 18.25 94.9829C18.715 94.9829 19.18 94.938 19.615 94.848C20.05 94.7581 20.515 94.6382 20.98 94.4883V96.0472C20.11 96.3769 19.12 96.5418 18.025 96.5418C16.405 96.5418 15.16 96.0472 14.29 95.0729C13.435 94.0536 13 92.6446 13 90.8159C13 89.6618 13.21 88.6575 13.63 87.7881C14.05 86.9187 14.665 86.2592 15.46 85.8095C16.255 85.3598 17.2 85.12 18.265 85.12C19.39 85.12 20.44 85.3598 21.4 85.8245L20.755 87.3384C20.38 87.1585 19.99 87.0086 19.57 86.8737C19.165 86.7538 18.715 86.6789 18.265 86.6789Z" fill="#7A7A7A"/>
<path d="M24.97 96.3619H23.2V84.5803H24.985V96.3619H24.97Z" fill="#7A7A7A"/>
<path d="M34.96 92.1499C34.96 93.5139 34.615 94.5932 33.91 95.3576C33.205 96.1221 32.23 96.5118 30.97 96.5118C30.19 96.5118 29.5 96.3319 28.9 95.9872C28.3 95.6274 27.835 95.1328 27.52 94.4583C27.19 93.7987 27.04 93.0343 27.04 92.1499C27.04 90.7859 27.385 89.7367 28.09 88.9722C28.78 88.2077 29.77 87.833 31.045 87.833C32.26 87.833 33.22 88.2227 33.925 89.0022C34.6 89.7816 34.96 90.8309 34.96 92.1499ZM28.855 92.1499C28.855 94.0835 29.575 95.0578 31 95.0578C32.41 95.0578 33.115 94.0985 33.115 92.1499C33.115 90.2313 32.41 89.287 30.985 89.287C30.235 89.287 29.695 89.5418 29.365 90.0364C29.02 90.5161 28.855 91.2356 28.855 92.1499Z" fill="#7A7A7A"/>
<path d="M42.91 96.3619L42.655 95.2677H42.565C42.31 95.6574 41.965 95.9572 41.515 96.1821C41.065 96.4069 40.54 96.5118 39.955 96.5118C38.935 96.5118 38.185 96.257 37.675 95.7474C37.18 95.2377 36.925 94.4733 36.925 93.454V87.9829H38.725V93.1542C38.725 93.7988 38.86 94.2784 39.115 94.5932C39.385 94.908 39.79 95.0728 40.345 95.0728C41.095 95.0728 41.635 94.848 41.995 94.3983C42.34 93.9486 42.52 93.1992 42.52 92.1499V87.9829H44.305V96.3619H42.91Z" fill="#7A7A7A"/>
<path d="M49.675 96.5117C48.625 96.5117 47.815 96.137 47.23 95.3726C46.645 94.6081 46.345 93.5589 46.345 92.1798C46.345 90.8008 46.645 89.7366 47.23 88.9721C47.83 88.2077 48.64 87.818 49.69 87.818C50.785 87.818 51.625 88.2227 52.21 89.0321H52.3C52.21 88.4325 52.165 87.9529 52.165 87.6081V84.5503H53.95V96.3319H52.555L52.24 95.2377H52.15C51.625 96.092 50.785 96.5117 49.675 96.5117ZM50.155 95.0728C50.89 95.0728 51.415 94.8629 51.76 94.4582C52.09 94.0535 52.27 93.379 52.27 92.4496V92.1948C52.27 91.1456 52.105 90.3961 51.76 89.9464C51.415 89.4968 50.875 89.2869 50.14 89.2869C49.51 89.2869 49.03 89.5417 48.685 90.0514C48.34 90.561 48.175 91.2805 48.175 92.2248C48.175 93.1541 48.34 93.8586 48.67 94.3533C49.015 94.8329 49.495 95.0728 50.155 95.0728Z" fill="#7A7A7A"/>
<path d="M67.135 93.349C67.135 94.3383 66.775 95.1028 66.07 95.6724C65.35 96.227 64.375 96.5118 63.115 96.5118C61.855 96.5118 60.835 96.3169 60.04 95.9272V94.2184C60.55 94.4583 61.075 94.6381 61.645 94.773C62.215 94.9079 62.74 94.9829 63.235 94.9829C63.955 94.9829 64.48 94.848 64.825 94.5782C65.17 94.3084 65.335 93.9336 65.335 93.4839C65.335 93.0642 65.185 92.7195 64.87 92.4347C64.555 92.1499 63.91 91.8051 62.935 91.4154C61.93 91.0107 61.21 90.546 60.805 90.0214C60.385 89.4968 60.19 88.8672 60.19 88.1328C60.19 87.2034 60.52 86.4839 61.18 85.9443C61.84 85.4197 62.725 85.1499 63.82 85.1499C64.885 85.1499 65.935 85.3747 66.985 85.8394L66.415 87.3233C65.425 86.9036 64.555 86.7088 63.775 86.7088C63.19 86.7088 62.74 86.8437 62.44 87.0985C62.14 87.3533 61.99 87.6831 61.99 88.1028C61.99 88.3876 62.05 88.6424 62.17 88.8373C62.29 89.0471 62.485 89.242 62.77 89.4219C63.055 89.6017 63.55 89.8415 64.27 90.1413C65.08 90.4861 65.68 90.8009 66.055 91.0857C66.43 91.3854 66.715 91.7152 66.895 92.0749C67.045 92.4197 67.135 92.8544 67.135 93.349Z" fill="#7A7A7A"/>
<path d="M79.12 90.8009C79.12 92.1499 78.865 93.2741 78.355 94.1885C77.845 95.1028 77.095 95.7473 76.12 96.1221L78.775 98.97H76.33L74.245 96.4818H73.945C72.28 96.4818 70.99 95.9872 70.09 94.9979C69.19 94.0086 68.74 92.5996 68.74 90.7709C68.74 88.9422 69.19 87.5332 70.09 86.5589C70.99 85.5846 72.28 85.09 73.945 85.09C75.595 85.09 76.87 85.5846 77.77 86.5889C78.67 87.5932 79.12 89.0022 79.12 90.8009ZM70.66 90.8009C70.66 92.1649 70.93 93.1992 71.485 93.9037C72.04 94.6082 72.85 94.9529 73.93 94.9529C75.01 94.9529 75.82 94.6082 76.36 93.9037C76.915 93.2142 77.185 92.1649 77.185 90.7859C77.185 89.4219 76.915 88.4026 76.375 87.6981C75.835 86.9936 75.025 86.6489 73.945 86.6489C72.865 86.6489 72.04 86.9936 71.485 87.6981C70.93 88.4176 70.66 89.4518 70.66 90.8009Z" fill="#7A7A7A"/>
<path d="M81.49 96.3619V85.2848H83.305V94.803H88V96.3619H81.49Z" fill="#7A7A7A"/>
</svg>

<svg xmlns="http://www.w3.org/2000/svg" width="100" height="100" fill="none"><path fill="#4683ED" d="M64.795 1h-28.59a5.11 5.11 0 0 0-4.41 2.548l-14.31 24.748a5.07 5.07 0 0 0 0 5.096L31.78 58.139a5.11 5.11 0 0 0 4.41 2.548h28.605a5.11 5.11 0 0 0 4.41-2.548L83.5 33.392a5.07 5.07 0 0 0 0-5.097L69.22 3.549A5.12 5.12 0 0 0 64.795 1"/><path fill="#417BDC" d="m61.975 23.559-2.91 5.606-4.56-4.557-4.005.9-3.12 1.334-3.285-3.283-6.735 2.353-.285 6.416 2.88 2.877-4.74 3.058 22.44 22.424h7.14a5.11 5.11 0 0 0 4.41-2.548l10.02-17.342z"/><path fill="#FEFFFD" d="M44.11 23.559h-6.3a2.595 2.595 0 0 0-2.595 2.593v3.672a2.595 2.595 0 0 0 2.595 2.593h3.33v2.788h-5.085l-.84 3.058h6.3a2.595 2.595 0 0 0 2.595-2.593v-3.597a2.595 2.595 0 0 0-2.595-2.593H38.32v-2.923h4.98zM55.24 35.296v-8.694a3.046 3.046 0 0 0-3.045-3.043H49.33a3.046 3.046 0 0 0-3.045 3.043v8.604a3.046 3.046 0 0 0 3.045 3.042h7.29v-2.953zm-2.955 0h-3.03v-8.784h3.03zM67.87 35.296h-5.895V23.558H59.05v14.704h2.925v-.045h5.895z"/><path fill="#7A7A7A" d="M30.19 71.735h4.08v5.56a12 12 0 0 1-1.92.465 14 14 0 0 1-1.995.135c-1.68 0-2.97-.495-3.885-1.484-.915-.99-1.365-2.398-1.365-4.197 0-1.784.51-3.178 1.545-4.182 1.02-1.004 2.445-1.514 4.23-1.514 1.155 0 2.25.225 3.285.66l-.63 1.514c-.9-.42-1.8-.615-2.7-.615-1.185 0-2.115.375-2.805 1.11-.69.749-1.035 1.753-1.035 3.042 0 1.35.315 2.383.93 3.088.615.704 1.515 1.05 2.67 1.05.585 0 1.215-.076 1.875-.226v-2.848h-2.295v-1.559zM44.17 73.548c0 1.364-.345 2.444-1.05 3.208s-1.68 1.154-2.94 1.154c-.78 0-1.47-.18-2.07-.525a3.43 3.43 0 0 1-1.38-1.528c-.33-.66-.48-1.424-.48-2.309 0-1.364.345-2.413 1.05-3.177.69-.765 1.68-1.14 2.955-1.14q1.822 0 2.88 1.17 1.035 1.146 1.035 3.147m-6.09 0c0 1.934.72 2.908 2.145 2.908 1.41 0 2.115-.96 2.115-2.908 0-1.918-.705-2.863-2.13-2.863-.75 0-1.29.255-1.62.75-.345.48-.51 1.184-.51 2.113M53.65 73.548c0 1.364-.345 2.444-1.05 3.208s-1.68 1.154-2.94 1.154c-.78 0-1.47-.18-2.07-.525a3.43 3.43 0 0 1-1.38-1.528c-.33-.66-.48-1.424-.48-2.309 0-1.364.345-2.413 1.05-3.177.69-.765 1.68-1.14 2.955-1.14q1.823 0 2.88 1.17 1.035 1.146 1.035 3.147m-6.09 0c0 1.934.72 2.908 2.145 2.908 1.41 0 2.115-.96 2.115-2.908 0-1.918-.705-2.863-2.13-2.863-.75 0-1.29.255-1.62.75-.345.48-.51 1.184-.51 2.113M62.785 69.366v.974l-1.425.27c.135.18.24.39.33.645s.135.524.135.824c0 .87-.3 1.544-.9 2.039-.6.494-1.41.75-2.46.75-.27 0-.51-.016-.735-.06-.39.24-.57.509-.57.839 0 .194.09.33.27.434.18.09.51.15.99.15h1.47c.93 0 1.62.195 2.1.585q.72.585.72 1.709 0 1.416-1.17 2.203c-.78.51-1.92.78-3.39.78-1.14 0-2.01-.195-2.61-.6s-.9-.974-.9-1.724q0-.764.495-1.304c.33-.345.78-.6 1.365-.734a1.34 1.34 0 0 1-.585-.495 1.26 1.26 0 0 1-.225-.705c0-.314.09-.584.27-.794s.435-.435.795-.645c-.435-.18-.78-.494-1.05-.914q-.405-.63-.405-1.484 0-1.371.855-2.113c.57-.495 1.395-.75 2.445-.75.24 0 .48.015.75.045.255.03.45.06.585.105h2.85zM56.2 79.05c0 .39.18.675.525.885s.84.314 1.455.314c.975 0 1.695-.135 2.175-.42.48-.284.705-.644.705-1.109 0-.36-.135-.63-.39-.779s-.75-.225-1.455-.225h-1.35q-.765 0-1.215.36c-.3.24-.45.57-.45.974m.765-6.97q0 .788.405 1.214c.27.285.66.42 1.17.42 1.035 0 1.545-.555 1.545-1.649 0-.54-.135-.96-.39-1.259q-.383-.45-1.17-.45c-.51 0-.9.15-1.17.435s-.39.735-.39 1.29M66.115 77.745H64.33V65.964h1.785zM72.325 77.895c-1.305 0-2.325-.375-3.06-1.14-.735-.763-1.11-1.798-1.11-3.132 0-1.364.345-2.443 1.02-3.223s1.62-1.169 2.805-1.169c1.11 0 1.98.33 2.625 1.005s.96 1.588.96 2.773v.959H70c.03.81.24 1.439.66 1.874.42.434 1.005.66 1.755.66.495 0 .96-.046 1.38-.136s.885-.255 1.38-.464v1.454c-.435.21-.87.36-1.32.434-.45.06-.96.105-1.53.105m-.33-7.33c-.57 0-1.02.18-1.365.54s-.54.884-.615 1.574h3.81q-.022-1.034-.495-1.574c-.315-.36-.765-.54-1.335-.54M18.265 86.679c-1.035 0-1.86.375-2.46 1.11q-.9 1.101-.9 3.057c0 1.364.285 2.383.855 3.088.57.69 1.41 1.049 2.49 1.049.465 0 .93-.045 1.365-.135s.9-.21 1.365-.36v1.56c-.87.329-1.86.494-2.955.494-1.62 0-2.865-.495-3.735-1.47-.855-1.018-1.29-2.427-1.29-4.256 0-1.154.21-2.159.63-3.028s1.035-1.529 1.83-1.978 1.74-.69 2.805-.69a7.1 7.1 0 0 1 3.135.704l-.645 1.514a9 9 0 0 0-1.185-.464 4.7 4.7 0 0 0-1.305-.195M24.97 96.362H23.2V84.58h1.785v11.782zM34.96 92.15c0 1.364-.345 2.443-1.05 3.208-.705.764-1.68 1.154-2.94 1.154-.78 0-1.47-.18-2.07-.525a3.43 3.43 0 0 1-1.38-1.529c-.33-.66-.48-1.424-.48-2.308 0-1.364.345-2.413 1.05-3.178.69-.764 1.68-1.139 2.955-1.139q1.822 0 2.88 1.17c.675.779 1.035 1.828 1.035 3.147m-6.105 0c0 1.933.72 2.908 2.145 2.908 1.41 0 2.115-.96 2.115-2.908 0-1.919-.705-2.863-2.13-2.863-.75 0-1.29.255-1.62.75-.345.48-.51 1.199-.51 2.113M42.91 96.362l-.255-1.094h-.09c-.255.39-.6.69-1.05.914s-.975.33-1.56.33c-1.02 0-1.77-.255-2.28-.765-.495-.51-.75-1.274-.75-2.293v-5.471h1.8v5.171c0 .645.135 1.124.39 1.44.27.314.675.479 1.23.479.75 0 1.29-.225 1.65-.675.345-.45.525-1.199.525-2.248v-4.167h1.785v8.379zM49.675 96.512c-1.05 0-1.86-.375-2.445-1.14s-.885-1.813-.885-3.192.3-2.443.885-3.208c.6-.764 1.41-1.154 2.46-1.154q1.642 0 2.52 1.214h.09c-.09-.6-.135-1.08-.135-1.424V84.55h1.785v11.782h-1.395l-.315-1.094h-.09c-.525.854-1.365 1.274-2.475 1.274m.48-1.44c.735 0 1.26-.21 1.605-.614.33-.404.51-1.079.51-2.008v-.255c0-1.05-.165-1.799-.51-2.249s-.885-.66-1.62-.66c-.63 0-1.11.256-1.455.765-.345.51-.51 1.23-.51 2.174 0 .93.165 1.634.495 2.128.345.48.825.72 1.485.72M67.135 93.349c0 .99-.36 1.754-1.065 2.323-.72.555-1.695.84-2.955.84s-2.28-.195-3.075-.585v-1.709c.51.24 1.035.42 1.605.555a7 7 0 0 0 1.59.21c.72 0 1.245-.135 1.59-.405s.51-.644.51-1.094c0-.42-.15-.764-.465-1.05-.315-.284-.96-.629-1.935-1.019-1.005-.404-1.725-.869-2.13-1.394-.42-.524-.615-1.154-.615-1.888 0-.93.33-1.65.99-2.189.66-.524 1.545-.794 2.64-.794 1.065 0 2.115.225 3.165.69l-.57 1.483c-.99-.42-1.86-.614-2.64-.614-.585 0-1.035.135-1.335.39-.3.254-.45.584-.45 1.004 0 .285.06.54.18.734.12.21.315.405.6.585s.78.42 1.5.72c.81.344 1.41.659 1.785.944.375.3.66.63.84.989.15.345.24.78.24 1.274M79.12 90.8c0 1.35-.255 2.474-.765 3.389a4.22 4.22 0 0 1-2.235 1.933l2.655 2.848H76.33l-2.085-2.488h-.3c-1.665 0-2.955-.495-3.855-1.484q-1.35-1.484-1.35-4.227c0-1.829.45-3.238 1.35-4.212s2.19-1.469 3.855-1.469c1.65 0 2.925.495 3.825 1.499s1.35 2.413 1.35 4.212m-8.46 0c0 1.365.27 2.4.825 3.104s1.365 1.049 2.445 1.049 1.89-.345 2.43-1.05c.555-.689.825-1.738.825-3.117 0-1.364-.27-2.383-.81-3.088-.54-.704-1.35-1.05-2.43-1.05s-1.905.346-2.46 1.05c-.555.72-.825 1.754-.825 3.103M81.49 96.362V85.285h1.815v9.518H88v1.559z"/></svg>
